images/social/weibo.svg

<svg height="30" viewBox="0 0 30 30" width="30" xmlns="http://www.w3.org/2000/svg"><g fill="#fff" fill-rule="nonzero"><path d="m19.621364 9.90024255.0947302.00945162c.5648126.09498903 1.0529766.34675943 1.443796.74767963.3995349.4098608.6395164.9657555.7335355 1.6469139.0528604.3829684-.214745.7362775-.5977134.789138-.3829684.0528604-.7362775-.214745-.789138-.5977134-.0557693-.4040427-.1766933-.6841519-.3491814-.861098-.1449628-.1487093-.3132174-.2502756-.5153603-.3086062l-.1581268-.0357023c-.3812454-.064117-.6383287-.4251546-.5742116-.8064.0587739-.3494749.3670436-.59461923.7116698-.58366325z"/><path d="m18.9255561 7.11258234c.1035079-.3724851.4893765-.59053419.8618616-.48702628 1.5622062.43411325 2.8001848 1.1755108 3.6950892 2.22660783.8789017 1.03230144 1.4452338 2.22408221 1.6939228 3.56399331.0705484.3801079-.180399.7454369-.5605069.8159854-.3801078.0705484-.7454369-.1803991-.8159853-.5605069-.2040698-1.0995073-.6635149-2.0663568-1.3834087-2.91189773-.7038912-.82674533-1.6989245-1.4226484-3.0039465-1.78529403-.3724851-.10350792-.5905341-.4893765-.4870262-.8618616z"/><path d="m12.6834097 10.3c-1.61422 0-3.67904138 1.1320764-5.47202056 2.9343109-1.86501141 1.8759069-2.91138914 3.882339-2.91138914 5.6853575 0 3.4269372 3.90751306 5.7648822 8.4112448 5.7648822 4.9134663 0 8.9887552-2.8583413 8.9887552-6.0707827l-.0056882-.1975328c-.0718496-1.2405739-.8205523-2.2786441-2.0287965-2.9071853l-.1935153-.0950498.0257061-.1341494c.1107547-.7046008-.0080741-1.3379581-.3776883-1.8683717-.4650322-.6690524-1.2701779-1.081586-2.4092122-1.081586l-.2546463.0067598c-.3446303.0179872-.7092058.0717149-1.088183.1593135l-.1629763.0400338-.0137717-.1415288c-.0767159-.5653236-.3089313-1.0314237-.6660982-1.3899317-.4631797-.4655817-1.1080569-.7045395-1.8417204-.7045395zm0 1.4c.3787697 0 .6639065.1056568.8495659.292279.2559106.2568716.3710809.6728278.2245825 1.3778202-.112551.5416281.4180371.9936339.9348928.7964315.7557807-.2883626 1.4515934-.4366378 2.0183547-.4366378.684771 0 1.0587541.1916183 1.2601063.4813077.2134306.3062839.2317903.7519478.0009848 1.3834647-.1364531.3733551.0650071.7852722.443489.9067831 1.2153499.3901857 1.8846143 1.1748147 1.8846143 2.1123195 0 2.3113289-3.3639985 4.6707827-7.5887552 4.6707827-3.83128957 0-7.0112448-1.9026323-7.0112448-4.3648822 0-1.3798981.87702588-3.0615975 2.50405075-4.6981276 1.55495812-1.5629847 3.30329155-2.5215408 4.47935895-2.5215408z"/></g></svg>

<?xml version="1.0" encoding="UTF-8"?>
<svg width="30px" height="30px" viewBox="0 0 30 30" version="1.1" xmlns="http://www.w3.org/2000/svg" xmlns:xlink="http://www.w3.org/1999/xlink">
    <title>weibo</title>
    <g id="weibo" stroke="none" stroke-width="1" fill="none" fill-rule="evenodd">
        <path d="M19.621364,9.90024255 L19.7160942,9.90969417 C20.2809068,10.0046832 20.7690708,10.2564536 21.1598902,10.6573738 C21.5594251,11.0672346 21.7994066,11.6231293 21.8934257,12.3042877 C21.9462861,12.6872561 21.6786807,13.0405652 21.2957123,13.0934257 C20.9127439,13.1462861 20.5594348,12.8786807 20.5065743,12.4957123 C20.450805,12.0916696 20.329881,11.8115604 20.1573929,11.6346143 C20.0124301,11.485905 19.8441755,11.3843387 19.6420326,11.3260081 L19.4839058,11.2903058 C19.1026604,11.2261888 18.8455771,10.8651512 18.9096942,10.4839058 C18.9684681,10.1344309 19.2767378,9.88928657 19.621364,9.90024255 Z" id="路径" fill="#FFFFFF" fill-rule="nonzero"></path>
        <path d="M18.9255561,7.11258234 C19.029064,6.74009724 19.4149326,6.52204815 19.7874177,6.62555606 C21.3496239,7.05966931 22.5876025,7.80106686 23.4825069,8.85216389 C24.3614086,9.88446533 24.9277407,11.0762461 25.1764297,12.4161572 C25.2469781,12.7962651 24.9960307,13.1615941 24.6159228,13.2321426 C24.235815,13.302691 23.8704859,13.0517435 23.7999375,12.6716357 C23.5958677,11.5721284 23.1364226,10.6052789 22.4165288,9.75973797 C21.7126376,8.93299264 20.7176043,8.33708957 19.4125823,7.97444394 C19.0400972,7.87093602 18.8220482,7.48506744 18.9255561,7.11258234 Z" id="路径" fill="#FFFFFF" fill-rule="nonzero"></path>
        <path d="M12.6834097,10.3 C11.0691897,10.3 9.00436832,11.4320764 7.21138914,13.2343109 C5.34637773,15.1102178 4.3,17.1166499 4.3,18.9196684 C4.3,22.3466056 8.20751306,24.6845506 12.7112448,24.6845506 C17.6247111,24.6845506 21.7,21.8262093 21.7,18.6137679 L21.6943118,18.4162351 C21.6224622,17.1756612 20.8737595,16.137591 19.6655153,15.5090498 L19.472,15.414 L19.4977061,15.2798506 C19.6084608,14.5752498 19.489632,13.9418925 19.1200178,13.4114789 C18.6549856,12.7424265 17.8498399,12.3298929 16.7108056,12.3298929 L16.4561593,12.3366527 C16.111529,12.3546399 15.7469535,12.4083676 15.3679763,12.4959662 L15.205,12.536 L15.1912283,12.3944712 C15.1145124,11.8291476 14.882297,11.3630475 14.5251301,11.0045395 C14.0619504,10.5389578 13.4170732,10.3 12.6834097,10.3 Z M12.6834097,11.7 C13.0621794,11.7 13.3473162,11.8056568 13.5329756,11.992279 C13.7888862,12.2491506 13.9040565,12.6651068 13.7575581,13.3700992 C13.6450071,13.9117273 14.1755952,14.3637331 14.6924509,14.1665307 C15.4482316,13.8781681 16.1440443,13.7298929 16.7108056,13.7298929 C17.3955766,13.7298929 17.7695597,13.9215112 17.9709119,14.2112006 C18.1843425,14.5174845 18.2027022,14.9631484 17.9718967,15.5946653 C17.8354436,15.9680204 18.0369038,16.3799375 18.4153857,16.5014484 C19.6307356,16.8916341 20.3,17.6762631 20.3,18.6137679 C20.3,20.9250968 16.9360015,23.2845506 12.7112448,23.2845506 C8.87995523,23.2845506 5.7,21.3819183 5.7,18.9196684 C5.7,17.5397703 6.57702588,15.8580709 8.20405075,14.2215408 C9.75900887,12.6585561 11.5073423,11.7 12.6834097,11.7 Z" id="路径" fill="#FFFFFF" fill-rule="nonzero"></path>
    </g>
</svg>
